X:1
T:Title
%%score ( 1 2 ) 3
L:1/8
Q:1/4=90
M:4/4
K:Db
V:1 treble nm="Grand Piano, Soprano"
V:2 treble 
V:3 bass nm="Choir Pad, Bass"
V:1
 D[DE][DF][DF] [DF][DF][DF][CE] | [DF][EG][FA][FA] D[DE] [DF]2 | %2
w: By~Barney~Elliott~Warren * * * * * * *||
 [EG][DF][CE][CE] [CE][CE][Ac][GB] | [FA][EG][DF][DF] [DF][EG] [FA]2 | %4
w: ||
 D[DE][DF][DF] [DF][DF][DF][CE] | [DF][EG][FA][FA] D[DE] [DF]2 | %6
w: ||
 [FA][FA][GB][Ac] [Bd][GB][FA][DF] | D[DE][DF][DF] [CE][CE] D2 | [DF][EG] [FA]4 [DF]2 | %9
w: |||
 [Fd][Ge] [Af]4 [Fe]2 | [Ec][Fd] [Ge]4 [GA]2 | [Af][Ge] d4 A2 | [DF][EG] [FA]4 [DF]2 | %13
w: ||||
 [Fd][Ge] [Af]4 [Fd]2 | [Ec][Fd] [Ge]4 [GA]2 | [Af][Ge]d-[Fd-] [Gd-][Gd-] [Fd]2- | [Fd]6 z2 |] %17
w: ||||
V:2
 x8 | x8 | x8 | x8 | x8 | x8 | x8 | x8 | x8 | x8 | x8 | z2 F6 | x8 | x8 | x8 | z2 .F2 z4 | x8 |] %17
V:3
 [D,F,][D,G,][D,A,][D,A,] [D,A,][D,A,][D,A,][A,,A,] | [D,A,][D,A,][D,D][D,D] [D,F,][D,G,] [D,A,]2 | %2
 [C,A,][D,A,][A,,A,][A,,A,] [A,,A,][A,,A,][A,,A,][A,,A,] | %3
 [A,,A,][A,,A,][D,A,][D,A,] [D,A,][D,A,] [D,D]2 | %4
 [D,F,][D,G,][D,A,][D,A,] [D,A,][D,A,][D,A,][A,,A,] | [D,A,][D,A,][D,D][D,D] [D,F,][D,G,] [D,A,]2 | %6
 [D,D][D,D][G,D][G,D] [G,D][G,D][D,D][D,A,] | [F,A,][G,B,]A,A, [A,,G,][A,,G,] [D,F,]2 | %8
 z2 [D,D][D,D] [D,D][D,D][D,A,][D,A,] | z2 [D,D][D,D] [D,D][D,D][D,A,][D,A,] | %10
 z2 [A,C][A,C] [A,C][A,C][A,C][A,C] | z2 [D,A,][D,A,] [D,A,][D,A,] [D,D]2 | %12
 z2 [D,D][D,D] [D,D][D,D][D,A,][D,A,] | z2 [D,D][D,D] [D,D][D,D][D,A,][D,A,] | %14
 z2 [A,C][A,C] [A,C][A,C][A,C][A,C] | z2 [D,A,]D, [D,B,][D,B,] [D,A,]2- | [D,A,]6 z2 |] %17

